X:25121
T: Major Graham
R: strathspey
Z: 1997 by John Chambers <jc:trillian.mit.edu>
B: RSCDS 25-12
M: C
L: 1/8
%--------------------
K: D
|: D>B, \
| "D"A,>B, D2 "G"D2 d>B | "D"A>F E<D "A7"E2 D>B, \
| "D"A,>B, D2 "G"D2 d>B | "A7"A>F E<F "D"D2 :|
(3ABc \
| "D"d>e d>c "G"B>A B<d | "D"A>F E<D "A7"E2 (3ABc \
| "D"d>e d>c "G"B>A B<d | "A7"A>F E<F "D"D2 ||
(3ABc \
| "D"d>e d>c "G"B>A B<d | "D"A>F E<D "A7"E2 D>B, \
| "D"A,>B, D2 "G"D2 d>B | "A7"A>F E<F "D"D2 |]
